my-site/themes/moving-test/assets/images/Group 1597878299.svg

<svg width="45" height="45" viewBox="0 0 45 45" fill="none" xmlns="http://www.w3.org/2000/svg">
<circle cx="22.0244" cy="22.0244" r="22.0244" fill="#40D349"/>
<path d="M22.4551 10.5051C28.8084 10.5051 33.9727 15.6723 33.9727 22.0247C33.9725 28.3769 28.8083 33.5442 22.4551 33.5442C20.3096 33.5441 18.3028 32.9558 16.5791 31.928L14.1914 32.1536L12.3682 32.3254L12.5596 30.5042L12.792 28.2883C11.6165 26.4844 10.9336 24.3305 10.9336 22.0247C10.9336 15.671 16.0971 10.5052 22.4502 10.5051H22.4551Z" fill="#40D349" stroke="white" stroke-width="3"/>
<path d="M19.0293 16.3499L19.0283 16.3508C19.165 16.3566 19.3451 16.3611 19.5088 16.468C19.6314 16.5481 19.7235 16.6694 19.8047 16.8274L19.8838 16.9973V16.9983C20.1291 17.5893 20.7124 19.0134 20.7793 19.1545H20.7783C20.8528 19.309 20.9777 19.6104 20.8184 19.9192L20.8174 19.9182C20.7082 20.1486 20.6045 20.2614 20.46 20.428C20.382 20.5178 20.3051 20.5978 20.2354 20.6721C20.1645 20.7476 20.0981 20.8207 20.0303 20.9045L20.0264 20.9094C19.9501 20.9991 19.9139 21.0439 19.8984 21.0891C19.891 21.111 19.8805 21.153 19.9346 21.2463C20.1036 21.5319 20.6754 22.4616 21.5098 23.2043C22.5943 24.1698 23.4665 24.4751 23.7891 24.6096L23.8545 24.6321C24.0051 24.673 24.1421 24.637 24.2168 24.5579C24.4268 24.3312 24.6902 23.9498 24.9785 23.5461C25.1056 23.3671 25.2652 23.2467 25.4541 23.1975C25.6375 23.1498 25.8192 23.177 25.9824 23.2375C26.1352 23.2906 26.5787 23.5004 26.999 23.7034C27.4286 23.9109 27.8611 24.1249 28.0088 24.1985H28.0098C28.1402 24.264 28.2836 24.329 28.3809 24.3821C28.4555 24.4229 28.5419 24.4766 28.6113 24.554L28.6738 24.6389L28.6748 24.6409C28.7219 24.7241 28.7368 24.8332 28.7432 24.9192C28.7504 25.0181 28.7489 25.1375 28.7373 25.2708C28.7141 25.538 28.6495 25.8754 28.5215 26.2375C28.3752 26.6505 28.0252 27.0004 27.6387 27.262C27.2476 27.5266 26.7872 27.7231 26.3721 27.8127H26.3711C26.0887 27.8729 25.7547 27.9273 25.1924 27.8381C24.6405 27.7506 23.8731 27.5257 22.7139 27.0452C19.6944 25.794 17.755 22.7338 17.623 22.5598L17.6191 22.5559L17.8213 22.4084L17.6191 22.5549C17.5471 22.4561 17.2402 22.0465 16.9512 21.4768C16.6634 20.9094 16.3818 20.1612 16.3818 19.386C16.3819 17.8457 17.1728 17.084 17.4775 16.7727C17.7841 16.4598 18.2609 16.3382 18.6807 16.3381C18.8122 16.3381 18.931 16.3449 19.0293 16.3499Z" fill="white" stroke="white" stroke-width="0.5"/>
</svg>

<svg xmlns="http://www.w3.org/2000/svg" width="45" height="45" fill="none" viewBox="0 0 45 45"><circle cx="22.024" cy="22.024" r="22.024" fill="#40d349"/><path fill="#40d349" stroke="#fff" stroke-width="3" d="M22.455 10.505c6.353 0 11.518 5.167 11.518 11.52s-5.165 11.52-11.518 11.52a11.43 11.43 0 0 1-5.876-1.617l-2.388.226-1.823.171.192-1.82.232-2.217a11.44 11.44 0 0 1-1.858-6.263c0-6.354 5.163-11.52 11.516-11.52z"/><path fill="#fff" stroke="#fff" stroke-width=".5" d="M19.03 16.35h-.002c.137.007.317.011.48.118a.9.9 0 0 1 .297.36l.079.17c.245.591.828 2.015.895 2.156.074.155.199.456.04.765h-.002c-.109.23-.212.342-.357.509q-.119.134-.225.244c-.07.076-.137.149-.205.232l-.004.005a.7.7 0 0 0-.128.18c-.007.022-.017.064.037.157.169.286.74 1.216 1.575 1.958 1.084.966 1.956 1.271 2.28 1.406l.065.022c.15.041.287.005.362-.074.21-.227.473-.608.762-1.012a.85.85 0 0 1 .475-.348.88.88 0 0 1 .528.04c.153.053.597.262 1.017.465.43.208.862.422 1.01.495.131.066.275.131.372.184.075.04.16.095.23.172l.063.085v.002a.7.7 0 0 1 .07.278q.01.15-.007.352a4 4 0 0 1-.215.966c-.147.414-.497.763-.883 1.025a3.8 3.8 0 0 1-1.267.55 2.9 2.9 0 0 1-1.18.026c-.552-.087-1.319-.312-2.478-.793-3.02-1.251-4.959-4.311-5.091-4.485l-.004-.004.202-.148-.202.147c-.072-.099-.379-.508-.668-1.078-.288-.568-.57-1.316-.57-2.091 0-1.54.792-2.302 1.096-2.613.307-.313.784-.435 1.204-.435.131 0 .25.007.348.012Z"/></svg>
